!!!id: BC064
!!!page: 80-81
!!!COM: Buxeuil, René de
!!!LYR: Thomas, Vigile; Buxeuil, René de
!!!PTL@@FR: Les 100 plus belles chansons
!!!OTL@@FR: La rim doum dim
!!!PUB: La Bonne Chanson, inc.
!!!YEM: On ne peut reproduire, enregistrer ou diffuser en tout ou en partie le présent ouvrage, sous quelque procédé que ce soit, électronique, mécanique, photographique, sonore, magnétique ou autre, sans avoir obtenu au préalable l'autorisation écrite de l'éditrice.
!!!PDT: 2011
!!!SMA: 2012 Bibliothèque nationale du Québec; Biblothèque nationale du Canada
!!!AGN-Laforte: strophique, 2:10(8)
!!!AGN-refrain: final, R:6(6)
!!!AGN-topic: [maman, amour]
!!!AGN-rime: mixtes: v: croisée (ababcdcd) + suivie (ee); R: mixte, croisée (hihi) + embrassée (hffh)
**kern	**text	**text
*clefG2	*	*
*k[f#]	*	*
*G:	*	*
*M6/8	*	*
*	*v:1	*v:2
*	*pline:1	*pline:11
8dd	Dans	Dans
=1	=1	=1
8dd	son	sa
8ee	pe-	cham-
8dd	-tit	-bre
8b	lit	de
8g	blanc	jeu-
8a	et	-ne
=2	=2	=2
(4.b	ro-	fil-
4b)	-se,	-le,
*	*rp:o	*rp:i
*	*rf:oz,ə	*rf:ij,ə
*	*rs:a	*rs:c3
*	*pline:2	*pline:12
8b	Su-	Su-
!!LO:PB:g=original
=3	=3	=3
8b	-zet-	-zet-
8cc	-te	-te
8b	jas[e]	de-
8g	en	-vant
8e	sou-	son
8f#	-ri-	mi-
=4	=4	=4
[4.g	-ant,	-roir,
4g]	.	.
*	*rp:ɑ̃	*rp:a
*	*rf:ɑ̃	*rf:wa
*	*rs:b	*rs:e
*	*pline:3	*pline:13
8g	El-	À
=5	=5	=5
8g	-le	l'heur[e]
8f#	ba-	où
8e	-bil-	l'é-
8e	-le	-toi-
*e:	*	*
8d#	mi-	-le
8e	-le	scin-
!!LO:PB:g=original
=6	=6	=6
(4.b	cho-	-til-
4a)	-ses	-le,
*	*rp:o	*rp:i
*	*rf:oz,ə	*rf:ij,ə
*	*rs:a	*rs:c3
*	*pline: 4	*pline:14
8a	À	Vient
=7	=7	=7
*D:	*	*
8cc#	sa	se
8b	douc[e]	con-
8a	et	-tem-
8g	chè-	-pler
8d#	-re	cha-
8e	ma-	-que
=8	=8	=8
[4.a	-man;	soir;
*	*rp:ɑ̃	*rp:a
*	*rf:ɑ̃	*rf:wa
*	*rs:b	*rs:e
4a]	.	.
*	*pline:5	*pline:15
8dd	Mais	Ell[e]
!!LO:PB:g=original
=9	=9	=9
8dd	chut!	ad-
8ee	il	-mi-
8ee	faut	-re
8b	dor-	sa
8g	-mir	gor-
8a	bien	-ge
=10	=10	=10
(4.b	vi-	ron-
4b)	-te,	de,
*	*rp:i	*rp:ɔ̃
*	*rf:it,ə	*rf:ɔ̃d,ə
*	*rs:c1	*rs:f1
*	*pline:6	*pline:16
8e	Nous	Son
=11	=11	=11
8e	a-	corps
8d#	-vons	sou-
8e	as-	-ple
*A:	*	*
8g#	-sez	comm[e]
8b	ba-	un
8dd	-var-	ro-
!!LO:PB:g=original
=12	=12	=12
[4.cc	-dé	-seau
*	*rp:e	*rp:o
*	*rf:de	*rf:o
*	*rs:d	*rs:g
4cc]	.	.
*	*pline:7	*pline:17
8cc	Fai-	Et
=13	=13	=13
8cc	-tes	dans
8b	do-	sa
8a	-do,	tê-
8a	chè-	-te
*D:	*	*
8gn	-re	va-
8e	pe-	-ga-
=14	=14	=14
(4.dd	-ti-	-bon-
4b)	-te,	-de
*	*rp:i	*rp:ɔ̃
*	*rf:it,ə	*rf:ɔ̃d,ə
*	*rs:c1	*rs:f1
*	*pline:8	*pline:18
8b	Car	Nais-
!!LO:PB:g=original
=15	=15	=15
8a	pe-	-sent
8f#	-tit	mi-
8g	pè-	-le
8a	-re	dé-
8b	va	-sirs
8cc#	gron-	nou-
=16	=16	=16
[4.dd	-der.	-veaux.
*	*rp:e	*rp:o
*	*rf:de	*rf:o
*	*rs:d	*rs:g
8dd]	.	.
8r	.	.
*	*pline:9	*pline:19
8dd	Et	Lais-
=17	=17	=17
*G:	*	*
8ccn	tout	-se
8dd	en	là
8ee	ber-	tes
8cc	-çant	fol-
8b	la	-les
8cc	ga-	i-
!!LO:PB:g=original
=18	=18	=18
(4.b	-mi-	-dé-
4a)	-ne,	-es,
*	*rp:i	*rp:e
*	*rf:in,ə	*rf:e
*	*rs:c2	*rs:d0
*	*pline:10	*pline:20
8dd	La	Gen-
=19	=19	=19
8g	mè-	-til-
8f#	-re	-le
8g	lui	pe-
8e	chan-	-ti-
8f#	-te,	-te
8g	câ-	pou-
=20	=20	=20
(4.a	-li-	-pé-
8a)	-ne:	-e:
*	*rp:i	*rp:e
*	*rf:in,ə	*rf:e
*	*rs:c2	*rs:d0
8r;	.	.
!!LO:PB:g=original
=||	=||	=||
*>Refrain	*>Refrain	*>Refrain
*	*refrain	*
*	*italic	*
*^	*	*
*	*	*pline:R1	*
!!LO:TX:a:t=REFRAIN
8d	8d	Fer-	.
=21	=21	=21	=21
4dd	4b	-me	.
8dd	8b	tes	.
4dd	4b	jo-	.
8cc	8a	-lis	.
=22	=22	=22	=22
[4.b	[4.g	yeux,	.
4b]	4g]	.	.
*	*	*rp:ø	*
*	*	*rf:jø	*
*	*	*rs:h	*
*	*	*pline:R2	*
8cc	8a	Car	.
=23	=23	=23	=23
4dd	4b	les	.
8cc#	8a#	heu-	.
4dd	4b	-res	.
8ee	8ccn	sont	.
=24	=24	=24	=24
(4dd	(4b	brè-	.
8cc#	8a#	.	.
4ccn)	4an)	-ves	.
*	*	*rp:ɛ	*
*	*	*rf:ɛv,ə	*
*	*	*rs:i	*
*	*	*pline:R3	*
8d	8d	Au	.
!!LO:PB:g=original
=25	=25	=25	=25
4cc	4a	pa-	.
8cc	8a	-ys	.
4cc	4a	mer-	.
8b	8g	-veil-	.
=26	=26	=26	=26
[4.b	[4.g	-leux,	.
*	*	*rp:ø	*
*	*	*rf:jø	*
*	*	*rs:h	*
!	!	!typo "ve"	!
4b]	4g]	.	.
*	*	*pline:R4	*
8cc	8a	Au	.
=27	=27	=27	=27
4dd	4b	beau	.
8b	8g	pa-	.
4cc	4a	-ys	.
8dd	8b	du	.
=28	=28	=28	=28
(4.dd#	(4.b	rê-	.
4ee)	4cc)	-ve;	.
*	*	*rp:ɛ	*
*	*	*rf:ɛv,ə	*
*	*	*rs:i	*
*	*	*pline:R1r	*
8d	8d	Fer-	.
!!LO:PB:g=original
=29	=29	=29	=29
4dd	4b	-me	.
8dd	8b	tes	.
4dd	4b	jo-	.
8cc	8a	-lis	.
=30	=30	=30	=30
[4.b	[4.g	yeux,	.
*	*	*rp:ø	*
*	*	*rf:jø	*
*	*	*rs:h	*
4b]	4g]	.	.
*	*	*pline:R5	*
8cc	8a	Car	.
4dd	4b	tout	.
8b	8g	n'est	.
4cc	4a	que	.
8dd	8b	men-	.
=31	=31	=31	=31
(4.dd#	(4.b	-son-	.
4ee)	4cc)	-ge;	.
8r	8ryy	.	.
*	*	*rp:ɔ̃	*
*	*	*rf:ɔ̃ʒ,ə	*
*	*	*rs:f2	*
!!LO:PB:g=original
=32	=32	=32	=32
*	*	*pline:R6	*
4ee	4cc	Le	.
8ee	8cc	bon-	.
8ee	8cc	-heur	.
8ddn	8b	est	.
8cc	8a	un	.
=33	=33	=33	=33
(4.b	(4.g	son-	.
4dd)	4b)	-ge,	.
*	*	*rp:ɔ̃	*
*	*	*rf:ɔ̃ʒ,ə	*
*	*	*rs:f2	*
*	*	*pline:R1r	*
8b	8g	Fer-	.
=34	=34	=34	=34
4dd	4b	-me	.
8cc	8a	tes	.
4a	4cc	jo-	.
8b	8dd	-lis	.
=35	=35	=35	=35
(16bL	(16ddL	yeux.	.
*	*	*rp:ø	*
*	*	*rf:jø	*
*	*	*rs:h	*
16aJ	16ccJ	.	.
[<4g	[>4b	.	.
4g])	4b])	.	.
*	*	*Xitalic	*
*	*	*Xrefrain	*
==	==	==	==
*v	*v	*	*
*-	*-	*-
!!!RDF**kern: < = below
!!!RDF**kern: > = above
!!!EED: Ève Poudrier
!!!EEV: 2026/04/21
